apps/scalable/2048.svg

<svg xmlns="http://www.w3.org/2000/svg" style="isolation:isolate" width="256" height="256"><defs><filter id="a" width="270.648" height="254.338" x="-7.32" y="2.95" filterUnits="userSpaceOnUse"><feGaussianBlur xmlns="http://www.w3.org/2000/svg" in="SourceGraphic" stdDeviation="4.294"/><feOffset xmlns="http://www.w3.org/2000/svg" dy="4" result="pf_100_offsetBlur"/><feFlood xmlns="http://www.w3.org/2000/svg" flood-opacity=".4"/><feComposite xmlns="http://www.w3.org/2000/svg" in2="pf_100_offsetBlur" operator="in" result="pf_100_dropShadow"/><feBlend xmlns="http://www.w3.org/2000/svg" in="SourceGraphic" in2="pf_100_dropShadow"/></filter></defs><path fill="#FB7C38" d="M165.685 11.947c74.055 0 84.639 10.557 84.639 84.544v59.251c0 73.986-10.584 84.543-84.639 84.543h-75.37c-74.055 0-84.639-10.557-84.639-84.543V96.491c0-73.987 10.584-84.544 84.639-84.544h75.37z" filter="url(#a)"/><path fill="#FFF" d="M5.676 126.116v29.626c0 73.986 10.584 84.543 84.639 84.543h75.37c74.055 0 84.639-10.557 84.639-84.543v-29.626H5.676z" opacity=".1"/><path fill="#FFF" d="M128 11.947v228.338h37.685c74.055 0 84.639-10.557 84.639-84.543V96.491c0-73.987-10.584-84.544-84.639-84.544H128z" opacity=".2"/><g opacity=".4"><linearGradient id="b" x1=".517" x2=".517" y2="1"><stop offset="0%" stop-color="#fff"/><stop offset="12.5%" stop-opacity=".098" stop-color="#fff"/><stop offset="92.5%" stop-opacity=".098"/><stop offset="100%" stop-opacity=".498"/></linearGradient><path fill="none" stroke="url(#b)" stroke-linecap="round" stroke-linejoin="round" stroke-width="4.077" d="M165.685 11.947c74.055 0 84.639 10.557 84.639 84.544v59.251c0 73.986-10.584 84.543-84.639 84.543h-75.37c-74.055 0-84.639-10.557-84.639-84.543V96.491c0-73.987 10.584-84.544 84.639-84.544h75.37z" vector-effect="non-scaling-stroke"/></g><defs><filter id="c" width="145" height="145" x="55" y="54" filterUnits="userSpaceOnUse"><feGaussianBlur xmlns="http://www.w3.org/2000/svg"/></filter></defs><path d="M69.052 54h116.896C193.703 54 200 60.297 200 68.052v116.896c0 7.755-6.297 14.052-14.052 14.052H69.052C61.297 199 55 192.703 55 184.948V68.052C55 60.297 61.297 54 69.052 54z" opacity=".3" filter="url(#c)"/><path fill="#E4E2E9" d="M164.308 151.105h22.356c6.684 0 12.11 5.426 12.11 12.11v22.357c0 6.683-5.426 12.11-12.11 12.11h-22.356c-6.684 0-12.11-5.427-12.11-12.11v-22.357c0-6.684 5.426-12.11 12.11-12.11zM116.506 103.302h22.356c6.684 0 12.11 5.427 12.11 12.11v22.357c0 6.684-5.426 12.11-12.11 12.11h-22.356c-6.684 0-12.11-5.426-12.11-12.11v-22.357c0-6.683 5.426-12.11 12.11-12.11zM164.308 103.302h22.356c6.684 0 12.11 5.427 12.11 12.11v22.357c0 6.684-5.426 12.11-12.11 12.11h-22.356c-6.684 0-12.11-5.426-12.11-12.11v-22.357c0-6.683 5.426-12.11 12.11-12.11zM68.703 55.501H91.06c6.684 0 12.11 5.426 12.11 12.11v22.356c0 6.684-5.426 12.11-12.11 12.11H68.703c-6.683 0-12.11-5.426-12.11-12.11V67.611c0-6.684 5.427-12.11 12.11-12.11zM116.506 55.501h22.356c6.684 0 12.11 5.426 12.11 12.11v22.356c0 6.684-5.426 12.11-12.11 12.11h-22.356c-6.684 0-12.11-5.426-12.11-12.11V67.611c0-6.684 5.426-12.11 12.11-12.11zM164.308 55.501h22.356c6.684 0 12.11 5.426 12.11 12.11v22.356c0 6.684-5.426 12.11-12.11 12.11h-22.356c-6.684 0-12.11-5.426-12.11-12.11V67.611c0-6.684 5.426-12.11 12.11-12.11z"/><path fill="#FEE581" d="M69.102 103.701h22.357c6.684 0 12.11 5.427 12.11 12.11v22.357c0 6.684-5.426 12.11-12.11 12.11H69.102c-6.683 0-12.11-5.426-12.11-12.11v-22.357c0-6.683 5.427-12.11 12.11-12.11z"/><path fill="#CBE667" d="M68.703 151.105H91.06c6.684 0 12.11 5.426 12.11 12.11v22.357c0 6.683-5.426 12.11-12.11 12.11H68.703c-6.683 0-12.11-5.427-12.11-12.11v-22.357c0-6.684 5.427-12.11 12.11-12.11z"/><path fill="#FDA463" d="M116.506 151.105h22.356c6.684 0 12.11 5.426 12.11 12.11v22.357c0 6.683-5.426 12.11-12.11 12.11h-22.356c-6.684 0-12.11-5.427-12.11-12.11v-22.357c0-6.684 5.426-12.11 12.11-12.11z"/><path d="M89.88 139.28H70.56q0-9.64 10.08-14.84 2.2-1.12 3.44-2.38 1.24-1.26 1.24-3.1 0-1.76-1.38-2.96t-3.5-1.2q-4.2 0-5.64 3.72L71 116.8q1.04-2.72 3.58-4.36 2.54-1.64 5.9-1.64 4.2 0 6.68 2.3 2.48 2.3 2.48 5.98 0 2.28-1.02 4-1.02 1.72-2.38 2.72-1.36 1-3.84 2.32-5.84 3.12-6.76 7.08h14.24v4.08z" opacity=".8"/><path fill-rule="evenodd" d="M87.55 189.53h-4.16v-6.36H68.31v-2.68l14.32-18.96h4.92v17.8h3.64v3.84h-3.64v6.36zm-13.72-10.2h9.56v-12.76l-9.56 12.76zM134.76 186.82q-2.7 2.44-7.02 2.44-4.32 0-7-2.44-2.68-2.44-2.68-6.24 0-4.8 4.68-7.12-3.48-1.96-3.48-5.84 0-3.16 2.34-5.24t6.14-2.08q3.8 0 6.16 2.08 2.36 2.08 2.36 5.24 0 3.84-3.52 5.84 4.72 2.28 4.72 7.12 0 3.8-2.7 6.24zm-7.02-15.32q1.88 0 3.08-1.06 1.2-1.06 1.2-2.58 0-1.6-1.18-2.58t-3.1-.98q-1.88 0-3.06.98-1.18.98-1.18 2.58 0 1.52 1.2 2.58t3.04 1.06zm-3.86 12.42q1.5 1.34 3.86 1.34t3.88-1.34q1.52-1.34 1.52-3.46 0-2.08-1.54-3.52t-3.86-1.44q-2.32 0-3.84 1.44t-1.52 3.52q0 2.12 1.5 3.46z" opacity=".8"/></svg>

<svg xmlns="http://www.w3.org/2000/svg" style="isolation:isolate" width="256" height="256" viewBox="0 0 256 256">
 <defs>
  <filter id="fkQOFdswt8KZLjZgdqvq0EweZfEfwF1V" width="270.648" height="254.338" x="-7.32" y="2.95" filterUnits="userSpaceOnUse">
   <feGaussianBlur xmlns="http://www.w3.org/2000/svg" in="SourceGraphic" stdDeviation="4.294"/>
   <feOffset xmlns="http://www.w3.org/2000/svg" dx="0" dy="4" result="pf_100_offsetBlur"/>
   <feFlood xmlns="http://www.w3.org/2000/svg" flood-opacity=".4"/>
   <feComposite xmlns="http://www.w3.org/2000/svg" in2="pf_100_offsetBlur" operator="in" result="pf_100_dropShadow"/>
   <feBlend xmlns="http://www.w3.org/2000/svg" in="SourceGraphic" in2="pf_100_dropShadow" mode="normal"/>
  </filter>
 </defs>
 <g filter="url(#fkQOFdswt8KZLjZgdqvq0EweZfEfwF1V)">
  <path fill="#FB7C38" d="M 165.685 11.947 C 239.74 11.947 250.324 22.504 250.324 96.491 L 250.324 155.742 C 250.324 229.728 239.74 240.285 165.685 240.285 L 90.315 240.285 C 16.26 240.285 5.676 229.728 5.676 155.742 L 5.676 96.491 C 5.676 22.504 16.26 11.947 90.315 11.947 L 165.685 11.947 Z"/>
 </g>
 <g opacity=".1">
  <path fill="#FFFFFF" d="M 5.676 126.116 L 5.676 155.742 C 5.676 229.728 16.26 240.285 90.315 240.285 L 165.685 240.285 C 239.74 240.285 250.324 229.728 250.324 155.742 L 250.324 126.116 L 5.676 126.116 Z"/>
 </g>
 <g opacity=".2">
  <path fill="#FFFFFF" d="M 128 11.947 L 128 240.285 L 165.685 240.285 C 239.74 240.285 250.324 229.728 250.324 155.742 L 250.324 96.491 C 250.324 22.504 239.74 11.947 165.685 11.947 L 128 11.947 Z"/>
 </g>
 <g opacity=".4">
  <linearGradient id="_lgradient_34" x1=".517" x2=".517" y1="0" y2="1">
   <stop offset="0%" style="stop-color:rgb(255,255,255)"/>
   <stop offset="12.5%" stop-opacity=".098" style="stop-color:rgb(255,255,255)"/>
   <stop offset="92.5%" stop-opacity=".098" style="stop-color:rgb(0,0,0)"/>
   <stop offset="100%" stop-opacity=".498" style="stop-color:rgb(0,0,0)"/>
  </linearGradient>
  <path fill="none" stroke="url(#_lgradient_34)" stroke-linecap="round" stroke-linejoin="round" stroke-width="4.077" d="M 165.685 11.947 C 239.74 11.947 250.324 22.504 250.324 96.491 L 250.324 155.742 C 250.324 229.728 239.74 240.285 165.685 240.285 L 90.315 240.285 C 16.26 240.285 5.676 229.728 5.676 155.742 L 5.676 96.491 C 5.676 22.504 16.26 11.947 90.315 11.947 L 165.685 11.947 Z" vector-effect="non-scaling-stroke"/>
 </g>
 <g>
  <defs>
   <filter id="T6S4UJmXct56pyZ5aaxChUPpF4b4JFrH" width="145" height="145" x="55" y="54" filterUnits="userSpaceOnUse">
    <feGaussianBlur xmlns="http://www.w3.org/2000/svg" stdDeviation="0"/>
   </filter>
  </defs>
  <g opacity=".3" filter="url(#T6S4UJmXct56pyZ5aaxChUPpF4b4JFrH)">
   <path d="M 69.052 54 L 185.948 54 C 193.703 54 200 60.297 200 68.052 L 200 184.948 C 200 192.703 193.703 199 185.948 199 L 69.052 199 C 61.297 199 55 192.703 55 184.948 L 55 68.052 C 55 60.297 61.297 54 69.052 54 Z"/>
  </g>
  <path fill="#E4E2E9" d="M 164.308 151.105 L 186.664 151.105 C 193.348 151.105 198.774 156.531 198.774 163.215 L 198.774 185.572 C 198.774 192.255 193.348 197.682 186.664 197.682 L 164.308 197.682 C 157.624 197.682 152.198 192.255 152.198 185.572 L 152.198 163.215 C 152.198 156.531 157.624 151.105 164.308 151.105 Z"/>
  <path fill="#E4E2E9" d="M 116.506 103.302 L 138.862 103.302 C 145.546 103.302 150.972 108.729 150.972 115.412 L 150.972 137.769 C 150.972 144.453 145.546 149.879 138.862 149.879 L 116.506 149.879 C 109.822 149.879 104.396 144.453 104.396 137.769 L 104.396 115.412 C 104.396 108.729 109.822 103.302 116.506 103.302 Z"/>
  <path fill="#E4E2E9" d="M 164.308 103.302 L 186.664 103.302 C 193.348 103.302 198.774 108.729 198.774 115.412 L 198.774 137.769 C 198.774 144.453 193.348 149.879 186.664 149.879 L 164.308 149.879 C 157.624 149.879 152.198 144.453 152.198 137.769 L 152.198 115.412 C 152.198 108.729 157.624 103.302 164.308 103.302 Z"/>
  <path fill="#E4E2E9" d="M 68.703 55.501 L 91.06 55.501 C 97.744 55.501 103.17 60.927 103.17 67.611 L 103.17 89.967 C 103.17 96.651 97.744 102.077 91.06 102.077 L 68.703 102.077 C 62.02 102.077 56.593 96.651 56.593 89.967 L 56.593 67.611 C 56.593 60.927 62.02 55.501 68.703 55.501 Z"/>
  <path fill="#E4E2E9" d="M 116.506 55.501 L 138.862 55.501 C 145.546 55.501 150.972 60.927 150.972 67.611 L 150.972 89.967 C 150.972 96.651 145.546 102.077 138.862 102.077 L 116.506 102.077 C 109.822 102.077 104.396 96.651 104.396 89.967 L 104.396 67.611 C 104.396 60.927 109.822 55.501 116.506 55.501 Z"/>
  <path fill="#E4E2E9" d="M 164.308 55.501 L 186.664 55.501 C 193.348 55.501 198.774 60.927 198.774 67.611 L 198.774 89.967 C 198.774 96.651 193.348 102.077 186.664 102.077 L 164.308 102.077 C 157.624 102.077 152.198 96.651 152.198 89.967 L 152.198 67.611 C 152.198 60.927 157.624 55.501 164.308 55.501 Z"/>
  <path fill="#FEE581" d="M 69.102 103.701 L 91.459 103.701 C 98.143 103.701 103.569 109.128 103.569 115.811 L 103.569 138.168 C 103.569 144.852 98.143 150.278 91.459 150.278 L 69.102 150.278 C 62.419 150.278 56.992 144.852 56.992 138.168 L 56.992 115.811 C 56.992 109.128 62.419 103.701 69.102 103.701 Z"/>
  <path fill="#CBE667" d="M 68.703 151.105 L 91.06 151.105 C 97.744 151.105 103.17 156.531 103.17 163.215 L 103.17 185.572 C 103.17 192.255 97.744 197.682 91.06 197.682 L 68.703 197.682 C 62.02 197.682 56.593 192.255 56.593 185.572 L 56.593 163.215 C 56.593 156.531 62.02 151.105 68.703 151.105 Z"/>
  <path fill="#FDA463" d="M 116.506 151.105 L 138.862 151.105 C 145.546 151.105 150.972 156.531 150.972 163.215 L 150.972 185.572 C 150.972 192.255 145.546 197.682 138.862 197.682 L 116.506 197.682 C 109.822 197.682 104.396 192.255 104.396 185.572 L 104.396 163.215 C 104.396 156.531 109.822 151.105 116.506 151.105 Z"/>
  <g opacity=".8">
   <path d="M 89.88 139.28 L 70.56 139.28 L 70.56 139.28 Q 70.56 129.64 80.64 124.44 L 80.64 124.44 L 80.64 124.44 Q 82.84 123.32 84.08 122.06 L 84.08 122.06 L 84.08 122.06 Q 85.32 120.8 85.32 118.96 L 85.32 118.96 L 85.32 118.96 Q 85.32 117.2 83.94 116 L 83.94 116 L 83.94 116 Q 82.56 114.8 80.44 114.8 L 80.44 114.8 L 80.44 114.8 Q 76.24 114.8 74.8 118.52 L 74.8 118.52 L 71 116.8 L 71 116.8 Q 72.04 114.08 74.58 112.44 L 74.58 112.44 L 74.58 112.44 Q 77.12 110.8 80.48 110.8 L 80.48 110.8 L 80.48 110.8 Q 84.68 110.8 87.16 113.1 L 87.16 113.1 L 87.16 113.1 Q 89.64 115.4 89.64 119.08 L 89.64 119.08 L 89.64 119.08 Q 89.64 121.36 88.62 123.08 L 88.62 123.08 L 88.62 123.08 Q 87.6 124.8 86.24 125.8 L 86.24 125.8 L 86.24 125.8 Q 84.88 126.8 82.4 128.12 L 82.4 128.12 L 82.4 128.12 Q 76.56 131.24 75.64 135.2 L 75.64 135.2 L 89.88 135.2 L 89.88 139.28 Z"/>
  </g>
  <g opacity=".8">
   <path fill-rule="evenodd" d="M 87.55 189.53 L 83.39 189.53 L 83.39 183.17 L 68.31 183.17 L 68.31 180.49 L 82.63 161.53 L 87.55 161.53 L 87.55 179.33 L 91.19 179.33 L 91.19 183.17 L 87.55 183.17 L 87.55 189.53 Z M 73.83 179.33 L 83.39 179.33 L 83.39 166.57 L 73.83 179.33 Z"/>
  </g>
  <g opacity=".8">
   <path fill-rule="evenodd" d="M 134.76 186.82 L 134.76 186.82 L 134.76 186.82 Q 132.06 189.26 127.74 189.26 L 127.74 189.26 L 127.74 189.26 Q 123.42 189.26 120.74 186.82 L 120.74 186.82 L 120.74 186.82 Q 118.06 184.38 118.06 180.58 L 118.06 180.58 L 118.06 180.58 Q 118.06 175.78 122.74 173.46 L 122.74 173.46 L 122.74 173.46 Q 119.26 171.5 119.26 167.62 L 119.26 167.62 L 119.26 167.62 Q 119.26 164.46 121.6 162.38 L 121.6 162.38 L 121.6 162.38 Q 123.94 160.3 127.74 160.3 L 127.74 160.3 L 127.74 160.3 Q 131.54 160.3 133.9 162.38 L 133.9 162.38 L 133.9 162.38 Q 136.26 164.46 136.26 167.62 L 136.26 167.62 L 136.26 167.62 Q 136.26 171.46 132.74 173.46 L 132.74 173.46 L 132.74 173.46 Q 137.46 175.74 137.46 180.58 L 137.46 180.58 L 137.46 180.58 Q 137.46 184.38 134.76 186.82 Z M 127.74 171.5 L 127.74 171.5 L 127.74 171.5 Q 129.62 171.5 130.82 170.44 L 130.82 170.44 L 130.82 170.44 Q 132.02 169.38 132.02 167.86 L 132.02 167.86 L 132.02 167.86 Q 132.02 166.26 130.84 165.28 L 130.84 165.28 L 130.84 165.28 Q 129.66 164.3 127.74 164.3 L 127.74 164.3 L 127.74 164.3 Q 125.86 164.3 124.68 165.28 L 124.68 165.28 L 124.68 165.28 Q 123.5 166.26 123.5 167.86 L 123.5 167.86 L 123.5 167.86 Q 123.5 169.38 124.7 170.44 L 124.7 170.44 L 124.7 170.44 Q 125.9 171.5 127.74 171.5 Z M 123.88 183.92 L 123.88 183.92 L 123.88 183.92 Q 125.38 185.26 127.74 185.26 L 127.74 185.26 L 127.74 185.26 Q 130.1 185.26 131.62 183.92 L 131.62 183.92 L 131.62 183.92 Q 133.14 182.58 133.14 180.46 L 133.14 180.46 L 133.14 180.46 Q 133.14 178.38 131.6 176.94 L 131.6 176.94 L 131.6 176.94 Q 130.06 175.5 127.74 175.5 L 127.74 175.5 L 127.74 175.5 Q 125.42 175.5 123.9 176.94 L 123.9 176.94 L 123.9 176.94 Q 122.38 178.38 122.38 180.46 L 122.38 180.46 L 122.38 180.46 Q 122.38 182.58 123.88 183.92 Z"/>
  </g>
 </g>
</svg>
